X: 47
T:Irish 
R:jig
C:Trad, via EF
S:Nottingham Music Database
M:6/8
L:1/8
Q:3/8=120
K:G
d/2c/2|BGG DGG|BGB dcB|cAA EAA|cAc edc|
BGG DGG|BGB dcB|cBc Adc|BGG G2:|
g|bgg dgg|bgb bag|aff dff|afa agf|
egg dgg|cgg BgB|cBc Adc|BGG G2:|
